OpenProtest/bin/protest/front/res/dhcp.svg

<svg version="1.1" xmlns="http://www.w3.org/2000/svg" xmlns:xlink="http://www.w3.org/1999/xlink" x="0px" y="0px" width="48px" height="48px" viewBox="0 0 48 48" enable-background="new 0 0 48 48" xml:space="preserve">
<g fill="#202020">
<path d="M19.663,32.674c3.104,3.671,8.08,4.81,12.334,3.215c0.947-0.355,2.183-0.157,2.838,0.615l0.462,0.548 c0.653,0.773,1.29,1.31,0.844,1.687c-0.445,0.376-0.276,1.31,0.378,2.081l5.521,6.53c0.654,0.773,1.811,0.871,2.584,0.217 l2.486-2.105c0.772-0.65,0.869-1.809,0.217-2.581l-5.522-6.53c-0.653-0.771-1.545-1.095-1.989-0.717 c-0.444,0.376-0.872-0.34-1.522-1.112l-0.463-0.547c-0.653-0.772-0.646-2.024-0.138-2.9c2.282-3.932,1.985-9.028-1.119-12.698 c-3.947-4.669-10.935-5.254-15.605-1.305C16.297,21.02,15.714,28.007,19.663,32.674z M33.378,31.744 c-3.437,2.905-8.574,2.477-11.48-0.958c-2.904-3.435-2.474-8.574,0.961-11.479c3.435-2.905,8.573-2.475,11.477,0.96 C37.24,23.703,36.811,28.841,33.378,31.744z"/>
<path d="M40.453,33.666c0.913-1.631,1.584-3.286,1.242-3.848c-0.314-0.52-1.051-0.717-1.834-0.805 c0.316-1.088,0.486-2.236,0.486-3.426c0-6.74-5.473-12.213-12.213-12.213c-0.902,0-1.781,0.098-2.628,0.284 c0.048-0.71,0.341-1.512,1.486-1.692c0,0-0.343-0.524,0.022-0.729c0.364-0.206,0.457-0.798,1.025-0.228c0,0,1.391-0.662,0.936-1.003 c-0.457-0.341-2.166-0.501,0.547-1.983c0,0-2.162-1.829-2.961-2.08c-0.797-0.251-0.596,0.438-1.689-0.291 c0,0-1.482-0.753-1.299,0.205c0.182,0.958,0.729,3.123-1.049,1.824c-1.778-1.299-2.803-1.299-1.801-1.983 c1.003-0.683,1.436-0.638,1.231-1.025c-0.206-0.388,1.162-0.798-0.365-0.684c-1.528,0.114-1.802-1.094-2.804-1.254 c-1.003-0.159-1.619,0.046-1.186,0.456c0.433,0.41,0.348,0.548-0.935,0.137c-1.282-0.41-2.257-1.276-3.853-0.159 c-1.595,1.117-3.806,2.326-3.875,3.032c0,0,2.599-1.55,3.055-0.821c0.456,0.73-0.182,2.735,0.41,3.693 c0.593,0.958-0.547-1.088-0.638,0.411c-0.091,1.499-2.006,2.963-0.547,5.836c1.459,2.872,0.524,2.553,0.98,3.146 c0.457,0.593,0.799,1.322,0.958,1.254c0.16-0.069-0.821-2.462-0.661-2.668c0.16-0.205,0.241,0.707,0.679,1.368 s1.373,1.579,1.396,2.211c0.022,0.626,0.156,1.506,1.678,2.144c-0.213,0.903-0.326,1.845-0.326,2.812 c0,6.741,5.473,12.214,12.214,12.214c0.428,0,0.852-0.021,1.27-0.065c0.302,1.531-1.02,3.787-1.523,4.826 c-0.593,1.231-0.527,3.386,0.073,3.672c-1.49,0.299-3.031,0.455-4.609,0.455C10.452,46.689,0,36.239,0,23.345 C0,10.452,10.452,0,23.345,0s23.344,10.452,23.344,23.345c0,4.826-1.465,9.311-3.974,13.031L40.453,33.666z M35.146,40.203 l1.778,2.13c-2.507,1.796-5.385,3.106-8.497,3.797c0.594-0.446,0.834-1.866,2.165-2.657c1.507-0.895,3.101-2.052,4.241-2.988 C34.943,40.395,35.048,40.301,35.146,40.203z"/>
</g></svg>

<svg width="48px" height="48px" viewBox="0 0 48 48" version="1.1" xmlns="http://www.w3.org/2000/svg" xmlns:xlink="http://www.w3.org/1999/xlink" xml:space="preserve" xmlns:serif="http://www.serif.com/" style="fill-rule:evenodd;clip-rule:evenodd;stroke-linejoin:round;stroke-miterlimit:2;">
    <g transform="matrix(0.692873,0,0,0.692873,15.6208,14.4342)">
        <path d="M6.34,26.007C10.642,31.096 17.54,32.674 23.439,30.463C24.753,29.971 26.465,30.246 27.373,31.317L28.014,32.077C28.919,33.148 29.801,33.891 29.183,34.415C28.567,34.936 28.801,36.228 29.706,37.299L37.36,46.352C38.266,47.423 39.869,47.558 40.941,46.652L44.389,43.735C45.459,42.831 45.594,41.227 44.689,40.155L37.034,31.104C36.127,30.033 34.893,29.585 34.275,30.109C33.659,30.631 33.069,29.639 32.165,28.567L31.523,27.809C30.618,26.738 30.629,25.002 31.333,23.788C34.496,18.338 34.084,11.274 29.781,6.186C24.308,-0.287 14.623,-1.097 8.149,4.377C1.675,9.851 0.866,19.537 6.34,26.007ZM25.353,24.719C20.59,28.746 13.467,28.15 9.44,23.39C5.413,18.628 6.009,11.504 10.771,7.478C15.532,3.451 22.656,4.047 26.682,8.808C30.708,13.57 30.112,20.693 25.353,24.719Z" style="fill:rgb(32,32,32);fill-rule:nonzero;"/>
    </g>
    <path d="M40.453,33.666C41.366,32.035 42.037,30.38 41.696,29.818C41.381,29.299 40.644,29.102 39.861,29.013C40.178,27.926 40.348,26.777 40.348,25.588C40.348,18.848 34.875,13.375 28.135,13.375C27.233,13.375 26.354,13.473 25.507,13.659C25.555,12.949 25.847,12.147 26.993,11.967C26.993,11.967 26.65,11.443 27.016,11.238C27.38,11.032 27.472,10.44 28.041,11.01C28.041,11.01 29.432,10.348 28.976,10.007C28.52,9.666 26.811,9.506 29.523,8.024C29.523,8.024 27.361,6.195 26.563,5.944C25.765,5.693 25.967,6.382 24.873,5.653C24.873,5.653 23.391,4.9 23.574,5.858C23.756,6.816 24.303,8.981 22.525,7.682C20.747,6.383 19.722,6.383 20.724,5.699C21.727,5.016 22.16,5.061 21.955,4.674C21.749,4.286 23.117,3.876 21.59,3.99C20.062,4.104 19.788,2.896 18.786,2.736C17.783,2.577 17.167,2.782 17.6,3.192C18.033,3.602 17.948,3.74 16.665,3.329C15.383,2.919 14.408,2.053 12.812,3.17C11.217,4.287 9.006,5.496 8.937,6.202C8.937,6.202 11.536,4.652 11.992,5.381C12.448,6.111 11.81,8.116 12.402,9.074C12.995,10.032 11.855,7.986 11.764,9.485C11.673,10.984 9.758,12.448 11.217,15.321C12.676,18.193 11.741,17.874 12.197,18.467C12.654,19.06 12.996,19.789 13.155,19.721C13.315,19.652 12.334,17.259 12.494,17.053C12.654,16.848 12.735,17.76 13.173,18.421C13.611,19.082 14.546,20 14.569,20.632C14.591,21.258 14.725,22.138 16.247,22.776C16.034,23.679 15.921,24.621 15.921,25.588C15.921,32.329 21.394,37.802 28.135,37.802C28.563,37.802 28.987,37.78 29.405,37.737C29.706,39.268 28.385,41.523 27.881,42.563C27.288,43.794 27.353,45.948 27.954,46.234C26.464,46.533 24.923,46.69 23.345,46.69C10.452,46.69 0,36.239 0,23.345C0,10.452 10.452,0 23.345,0C36.239,0 46.69,10.452 46.69,23.345C46.69,28.171 45.225,32.655 42.716,36.376L40.453,33.666ZM35.147,40.203L36.925,42.333C34.418,44.129 31.54,45.44 28.428,46.13C29.022,45.683 29.262,44.264 30.593,43.473C32.099,42.578 33.694,41.421 34.834,40.485C34.944,40.395 35.048,40.301 35.147,40.203Z" style="fill:rgb(32,32,32);fill-rule:nonzero;"/>
</svg>
